img/link.svg

<?xml version="1.0" encoding="UTF-8" standalone="no"?>
<svg width="16px" height="16px" viewBox="0 0 16 16" version="1.1" xmlns="http://www.w3.org/2000/svg" xmlns:xlink="http://www.w3.org/1999/xlink" xmlns:sketch="http://www.bohemiancoding.com/sketch/ns">
    <!-- Generator: Sketch 3.0.4 (8053) - http://www.bohemiancoding.com/sketch -->
    <title>link</title>
    <desc>Created with Sketch.</desc>
    <defs>
        <linearGradient x1="50%" y1="0%" x2="50%" y2="100%" id="linearGradient-1">
            <stop stop-color="#F9782F" offset="0%"></stop>
            <stop stop-color="#F76B1C" offset="100%"></stop>
        </linearGradient>
        <filter x="-50%" y="-50%" width="200%" height="200%" filterUnits="objectBoundingBox" id="filter-2">
            <feOffset dx="0" dy="0.3" in="SourceAlpha" result="shadowOffsetOuter1"></feOffset>
            <feGaussianBlur stdDeviation="0.5" in="shadowOffsetOuter1" result="shadowBlurOuter1"></feGaussianBlur>
            <feColorMatrix values="0 0 0 0 0   0 0 0 0 0   0 0 0 0 0  0 0 0 0.21 0" in="shadowBlurOuter1" type="matrix" result="shadowMatrixOuter1"></feColorMatrix>
            <feMerge>
                <feMergeNode in="shadowMatrixOuter1"></feMergeNode>
                <feMergeNode in="SourceGraphic"></feMergeNode>
            </feMerge>
        </filter>
        <filter x="-50%" y="-50%" width="200%" height="200%" filterUnits="objectBoundingBox" id="filter-3">
            <feOffset dx="0" dy="0.3" in="SourceAlpha" result="shadowOffsetOuter1"></feOffset>
            <feGaussianBlur stdDeviation="0.5" in="shadowOffsetOuter1" result="shadowBlurOuter1"></feGaussianBlur>
            <feColorMatrix values="0 0 0 0 0   0 0 0 0 0   0 0 0 0 0  0 0 0 0.21 0" in="shadowBlurOuter1" type="matrix" result="shadowMatrixOuter1"></feColorMatrix>
            <feMerge>
                <feMergeNode in="shadowMatrixOuter1"></feMergeNode>
                <feMergeNode in="SourceGraphic"></feMergeNode>
            </feMerge>
        </filter>
    </defs>
    <g id="Page-1" stroke="none" stroke-width="1" fill="none" fill-rule="evenodd" sketch:type="MSPage">
        <g id="link" sketch:type="MSArtboardGroup">
            <rect id="Rectangle-4" stroke="#EB6417" stroke-width="0.5" fill="url(#linearGradient-1)" sketch:type="MSShapeGroup" x="0" y="0" width="16" height="16" rx="3"></rect>
            <g id="Shape-+-Shape" sketch:type="MSLayerGroup" transform="translate(3.000000, 3.000000)" stroke="#FFFFFF" stroke-width="0.8" fill="#FFFFFF">
                <path d="M0.358332276,8.425245 C-0.0144557605,7.72016214 0.169224795,6.98669229 0.799165609,6.34506271 C1.51218013,5.61827215 2.23145649,4.89941325 2.95741214,4.18598127 C3.87790219,3.28093708 5.11106665,3.38196138 5.89212647,4.41224232 C5.98521911,4.53622669 6.05743897,4.65728888 5.93470696,4.79296202 C5.79193707,4.95076031 5.65334175,4.88939431 5.5243479,4.76457502 C5.39911116,4.64267792 5.28264099,4.51076189 5.14863767,4.39930119 C4.65937947,3.99061195 3.94594749,3.96222496 3.49008575,4.39596154 C2.63931081,5.20791309 1.80773884,6.04198979 0.99829203,6.89318219 C0.600874101,7.31063799 0.604213747,7.97021817 0.947779877,8.43526394 C1.08846248,8.62478888 1.258367,8.79845049 1.43495081,8.95624879 C1.98974957,9.45385611 2.69149279,9.4567783 3.23418534,8.94539494 C3.74264651,8.46573821 4.22731271,7.95936432 4.72241529,7.46634901 C4.85975825,7.32942351 5.01129471,7.15450952 5.19831491,7.35488831 C5.37865582,7.54733544 5.20708149,7.69678462 5.06973853,7.8357974 C4.57547085,8.33048253 4.0866301,8.83017714 3.58818786,9.32152262 C3.24712647,9.65757455 2.82841829,9.82831397 2.27695917,9.85336132 C1.38360374,9.79491751 0.774953173,9.2121492 0.358332276,8.425245 Z" id="Shape" filter="url(#filter-2)" sketch:type="MSShapeGroup"></path>
                <path d="M9.69431397,1.63115172 C10.0132502,2.4163861 9.81161905,3.09099469 9.23052057,3.67459791 C8.48828414,4.41766924 7.75481428,5.1690897 7.00255892,5.90005482 C6.30039825,6.58092524 5.31603745,6.63936905 4.62180844,6.0674546 C4.47194181,5.94430513 4.29494055,5.80570981 4.45733086,5.59614699 C4.60511021,5.40829188 4.76082123,5.54146028 4.91110532,5.64164967 C5.56943313,6.08123064 6.15136652,6.02821375 6.7099224,5.47383244 C7.42126709,4.76749721 8.12760232,4.05698743 8.83185027,3.34355545 C9.51939998,2.64598679 9.49685737,1.95384506 8.77424137,1.23039415 C8.06039194,0.515709806 7.36532801,0.503603587 6.65941024,1.19950242 C6.20647069,1.64576268 5.76062789,2.09953714 5.31102798,2.54913705 C5.1757723,2.6856451 5.02548821,2.86473364 4.83429345,2.67186905 C4.64810816,2.48484885 4.81091593,2.32579819 4.94951125,2.18720286 C5.44377893,1.69168282 5.93762915,1.19574532 6.43481902,0.703982375 C6.77755024,0.364173347 7.19792824,0.200113215 7.55694023,0.175483322 C8.43568471,0.162124736 9.36702861,0.827131838 9.69431397,1.63115172 Z" id="Shape" filter="url(#filter-3)" sketch:type="MSShapeGroup"></path>
            </g>
        </g>
    </g>
</svg>

<svg viewBox="0 0 16 16" xmlns="http://www.w3.org/2000/svg"><defs><filter x="-8" y="-8" width="32" height="32" filterUnits="objectBoundingBox" id="0"><feOffset dx="0" dy=".3" in="SourceAlpha" result="shadowOffsetOuter1"/><feGaussianBlur stdDeviation=".5" in="shadowOffsetOuter1" result="shadowBlurOuter1"/><feColorMatrix values="0 0 0 0 0   0 0 0 0 0   0 0 0 0 0  0 0 0 0.21 0" in="shadowBlurOuter1" type="matrix" result="shadowMatrixOuter1"/><feMerge><feMergeNode in="shadowMatrixOuter1"/><feMergeNode in="SourceGraphic"/></feMerge></filter><filter x="-8" y="-8" width="32" height="32" filterUnits="objectBoundingBox" id="1"><feOffset dx="0" dy=".3" in="SourceAlpha" result="shadowOffsetOuter1"/><feGaussianBlur stdDeviation=".5" in="shadowOffsetOuter1" result="shadowBlurOuter1"/><feColorMatrix values="0 0 0 0 0   0 0 0 0 0   0 0 0 0 0  0 0 0 0.21 0" in="shadowBlurOuter1" type="matrix" result="shadowMatrixOuter1"/><feMerge><feMergeNode in="shadowMatrixOuter1"/><feMergeNode in="SourceGraphic"/></feMerge></filter><linearGradient y1="0%" x2="0" y2="100%" id="2"><stop stop-color="#f9782f" offset="0%"/><stop stop-color="#f76b1c" offset="100%"/></linearGradient></defs><g fill="none" fill-rule="evenodd"><rect stroke="#eb6417" stroke-width=".5" fill="url(#2)" width="16" height="16" rx="3"/><g transform="translate(3 3)" stroke="#fff" stroke-width=".8" fill="#fff"><path d="m.358 8.425c-.373-.705-.189-1.439.441-2.08.713-.727 1.432-1.446 2.158-2.159.92-.905 2.154-.804 2.935.226.093.124.165.245.043.381-.143.158-.281.096-.41-.028-.125-.122-.242-.254-.376-.365-.489-.409-1.203-.437-1.659-.003-.851.812-1.682 1.646-2.492 2.497-.397.417-.394 1.077-.051 1.542.141.19.311.363.487.521.555.498 1.257.501 1.799-.011.508-.48.993-.986 1.488-1.479.137-.137.289-.312.476-.111.18.192.009.342-.129.481-.494.495-.983.994-1.482 1.486-.341.336-.76.507-1.311.532-.893-.058-1.502-.641-1.919-1.428" filter="url(#1)"/><path d="m9.694 1.631c.319.785.117 1.46-.464 2.043-.742.743-1.476 1.494-2.228 2.225-.702.681-1.687.739-2.381.167-.15-.123-.327-.262-.164-.471.148-.188.303-.055.454.046.658.44 1.24.387 1.799-.168.711-.706 1.418-1.417 2.122-2.13.688-.698.665-1.39-.058-2.113-.714-.715-1.409-.727-2.115-.031-.453.446-.899.9-1.348 1.35-.135.137-.286.316-.477.123-.186-.187-.023-.346.115-.485.494-.496.988-.991 1.485-1.483.343-.34.763-.504 1.122-.528.879-.013 1.81.652 2.137 1.456" filter="url(#0)"/></g></g></svg>
